;FLAVOR:Marlin
;TIME:59652
;Filament used: 46.1m
;Layer height: 0.2
;MINX:19.839
;MINY:56.335
;MINZ:0.2
;MAXX:200.161
;MAXY:163.665
;MAXZ:15
;Generated with Creality Slicer 4.8.2-291
M140 S60
M105
M190 S60
M104 S200
M105
M109 S200
M82 ;absolute extrusion mode

G28 
G29;Home

G92 E0 ;Reset Extruder
G1 Z2.0 F3000 ;Move Z Axis up
G1 X10.1 Y20 Z0.28 F5000.0 ;Move to start position
G1 X10.1 Y200.0 Z0.28 F1500.0 E15 ;Draw the first line
G1 X10.4 Y200.0 Z0.28 F5000.0 ;Move to side a little
G1 X10.4 Y20 Z0.28 F1500.0 E30 ;Draw the second line
G92 E0 ;Reset Extruder
G1 Z2.0 F3000 ;Move Z Axis up
G92 E0
G92 E0
G1 F1500 E-4
;LAYER_COUNT:75
;LAYER:0
M107
G0 F6000 X57.146 Y90.155 Z0.2
;TYPE:SUPPORT-INTERFACE
G1 F1500 E0
G1 F1200 X72.263 Y112.444 E0.89576
G1 X63.719 Y110.547 E1.18685
G1 X62.928 Y110.979 E1.21683
G1 X57.146 Y126.691 E1.77367
G1 X51.364 Y110.979 E2.33052
G1 X50.573 Y110.547 E2.36049
G1 X42.03 Y112.444 E2.65156
G1 X57.146 Y90.155 E3.54729
G0 F6000 X88.314 Y98.906
G1 F1200 X92.332 Y98.32 E3.68235
G1 X100.726 Y119.685 E4.44583
G1 X96.794 Y119.685 E4.57661
G1 X95.453 Y115.659 E4.71774
G1 X94.788 Y115.203 E4.74456
G1 X85.909 Y115.625 E5.04021
G1 X85.316 Y116.074 E5.06495
G1 X84.112 Y119.687 E5.19162
G1 X80.265 Y119.686 E5.31957
G1 X88.314 Y98.906 E6.06075
G0 F6000 X105.377 Y104.211
G1 F1200 X108.713 Y103.683 E6.17309
G1 X108.713 Y105.412 E6.23059
G1 X110.058 Y106.073 E6.28044
G1 X110.907 Y105.412 E6.31623
G1 X111.454 Y105.053 E6.33799
G1 X112.062 Y104.727 E6.36093
G1 X112.681 Y104.46 E6.38336
G1 X113.317 Y104.249 E6.40564
G1 X113.996 Y104.09 E6.42884
G1 X114.657 Y104 E6.45103
G1 X115.301 Y103.97 E6.47247
G1 X115.301 Y107.785 E6.59936
G1 X115.189 Y107.77 E6.60311
G1 X114.547 Y107.738 E6.62449
G1 X113.975 Y107.762 E6.64353
G1 X113.435 Y107.832 E6.66165
G1 X112.906 Y107.951 E6.67968
G1 X112.405 Y108.111 E6.69717
G1 X111.925 Y108.32 E6.71459
G1 X111.469 Y108.573 E6.73193
G1 X111.05 Y108.862 E6.74886
G1 X110.659 Y109.195 E6.76594
G1 X110.317 Y109.541 E6.78212
G1 X109.984 Y109.928 E6.7991
G1 X109.665 Y110.365 E6.8171
G1 X109.395 Y110.812 E6.83447
G1 X109.15 Y111.329 E6.8535
G1 X108.962 Y111.876 E6.87273
G1 X108.844 Y112.446 E6.89209
G1 X108.802 Y113.033 E6.91167
G1 X108.802 Y119.693 E7.13318
G1 X105.377 Y119.693 E7.2471
G1 X105.377 Y104.211 E7.76203
G0 F6000 X119.72 Y104.211
G1 F1200 X123.056 Y103.683 E7.87437
G1 X123.056 Y105.412 E7.93187
G1 X124.401 Y106.073 E7.98172
G1 X125.25 Y105.412 E8.01751
G1 X125.797 Y105.053 E8.03927
G1 X126.405 Y104.727 E8.06221
G1 X127.024 Y104.46 E8.08463
G1 X127.66 Y104.249 E8.10692
G1 X128.339 Y104.09 E8.13012
G1 X129 Y104 E8.1523
G1 X129.644 Y103.97 E8.17375
G1 X129.644 Y107.785 E8.30063
G1 X129.532 Y107.77 E8.30439
G1 X128.89 Y107.738 E8.32577
G1 X128.318 Y107.762 E8.34481
G1 X127.778 Y107.832 E8.36292
G1 X127.249 Y107.951 E8.38096
G1 X126.748 Y108.111 E8.39845
G1 X126.268 Y108.32 E8.41586
G1 X125.812 Y108.573 E8.43321
G1 X125.393 Y108.862 E8.45014
G1 X125.002 Y109.195 E8.46722
G1 X124.66 Y109.541 E8.4834
G1 X124.328 Y109.927 E8.50033
G1 X124.007 Y110.365 E8.5184
G1 X123.737 Y110.812 E8.53576
G1 X123.493 Y111.329 E8.55478
G1 X123.305 Y111.876 E8.57402
G1 X123.187 Y112.446 E8.59338
G1 X123.145 Y113.033 E8.61295
G1 X123.145 Y119.693 E8.83446
G1 X119.72 Y119.693 E8.94838
G1 X119.72 Y104.211 E9.46331
G0 F6000 X134.939 Y106.79
G1 F1200 X135.199 Y106.478 E9.47682
G1 X135.472 Y106.181 E9.49024
G1 X135.756 Y105.9 E9.50353
G1 X135.757 Y105.901 E9.50357
G1 X136.053 Y105.635 E9.51681
G1 X136.367 Y105.379 E9.53028
G1 X136.708 Y105.127 E9.54439
G1 X136.71 Y105.126 E9.54446
G1 X136.715 Y105.122 E9.54467
G1 X137.043 Y104.902 E9.55781
G1 X137.386 Y104.695 E9.57113
G1 X137.772 Y104.487 E9.58572
G1 X138.114 Y104.323 E9.59833
G1 X138.523 Y104.149 E9.61312
G1 X138.901 Y104.008 E9.62654
G1 X139.325 Y103.874 E9.64133
G1 X139.729 Y103.766 E9.65523
G1 X140.136 Y103.676 E9.6691
G1 X140.57 Y103.604 E9.68373
G1 X140.57 Y103.605 E9.68376
G1 X141.016 Y103.551 E9.69871
G1 X141.45 Y103.52 E9.71318
G1 X141.906 Y103.509 E9.72835
G1 X142.362 Y103.52 E9.74352
G1 X142.796 Y103.551 E9.75799
G1 X143.242 Y103.605 E9.77293
G1 X143.242 Y103.604 E9.77297
G1 X143.676 Y103.676 E9.7876
G1 X144.089 Y103.767 E9.80167
G1 X144.488 Y103.873 E9.8154
G1 X144.907 Y104.007 E9.83003
G1 X144.907 Y104.008 E9.83006
G1 X145.309 Y104.157 E9.84432
G1 X145.309 Y104.156 E9.84435
G1 X145.666 Y104.308 E9.85726
G1 X146.052 Y104.493 E9.8715
G1 X146.426 Y104.695 E9.88563
G1 X146.765 Y104.899 E9.89879
G1 X147.103 Y105.126 E9.91233
G1 X147.447 Y105.379 E9.92654
G1 X147.746 Y105.624 E9.93939
G1 X148.054 Y105.898 E9.95311
G1 X148.32 Y106.162 E9.96557
G1 X148.606 Y106.471 E9.97957
G1 X148.884 Y106.804 E9.994
G1 X149.101 Y107.09 E10.00594
G1 X149.333 Y107.432 E10.01969
G1 X149.52 Y107.738 E10.03162
G1 X149.724 Y108.113 E10.04581
G1 X149.895 Y108.467 E10.05889
G1 X150.057 Y108.85 E10.07272
G1 X150.178 Y109.189 E10.08469
G1 X150.294 Y109.567 E10.09784
G1 X150.389 Y109.956 E10.11116
G1 X150.472 Y110.4 E10.12619
G1 X150.526 Y110.787 E10.13918
G1 X150.555 Y111.15 E10.15129
G1 X150.567 Y111.587 E10.16583
G1 X150.555 Y112.033 E10.18067
G1 X150.526 Y112.404 E10.19305
G1 X150.472 Y112.815 E10.20684
G1 X150.394 Y113.227 E10.22078
G1 X150.395 Y113.227 E10.22082
G1 X150.304 Y113.597 E10.23349
G1 X150.19 Y113.981 E10.24681
G1 X150.054 Y114.365 E10.26036
G1 X149.9 Y114.738 E10.27378
G1 X149.74 Y115.073 E10.28613
G1 X149.558 Y115.412 E10.29893
G1 X149.344 Y115.766 E10.31269
G1 X149.112 Y116.109 E10.32646
G1 X148.884 Y116.414 E10.33913
G1 X148.647 Y116.699 E10.35146
G1 X148.343 Y117.032 E10.36645
G1 X148.089 Y117.283 E10.37833
G1 X147.782 Y117.559 E10.39206
G1 X147.451 Y117.83 E10.40629
G1 X147.136 Y118.065 E10.41936
G1 X146.794 Y118.294 E10.43305
G1 X146.46 Y118.495 E10.44601
G1 X146.46 Y118.494 E10.44605
G1 X146.081 Y118.7 E10.46039
G1 X145.694 Y118.886 E10.47468
G1 X145.354 Y119.03 E10.48696
G1 X144.922 Y119.19 E10.50228
G1 X144.518 Y119.317 E10.51636
G1 X144.111 Y119.426 E10.53038
G1 X143.675 Y119.519 E10.54521
G1 X143.255 Y119.589 E10.55937
G1 X142.817 Y119.641 E10.57404
G1 X142.365 Y119.673 E10.58911
G1 X141.906 Y119.685 E10.60438
G1 X141.45 Y119.673 E10.61955
G1 X141.016 Y119.642 E10.63402
G1 X140.57 Y119.588 E10.64897
G1 X140.148 Y119.517 E10.6632
G1 X139.73 Y119.427 E10.67742
G1 X139.319 Y119.317 E10.69157
G1 X138.898 Y119.184 E10.70626
G1 X138.507 Y119.039 E10.72013
G1 X138.131 Y118.88 E10.7337
G1 X137.766 Y118.703 E10.7472
G1 X137.38 Y118.495 E10.76178
G1 X137.046 Y118.294 E10.77475
G1 X136.706 Y118.066 E10.78836
G1 X136.371 Y117.817 E10.80224
G1 X136.053 Y117.558 E10.81589
G1 X135.757 Y117.292 E10.82912
G1 X135.465 Y117.005 E10.84274
G1 X135.21 Y116.728 E10.85526
G1 X134.94 Y116.406 E10.86924
G1 X134.703 Y116.091 E10.88235
G1 X134.484 Y115.767 E10.89536
G1 X134.281 Y115.434 E10.90833
G1 X134.084 Y115.072 E10.92204
G1 X133.917 Y114.727 E10.93478
G1 X133.765 Y114.362 E10.94793
G1 X133.628 Y113.982 E10.96137
G1 X133.512 Y113.597 E10.97474
G1 X133.414 Y113.196 E10.98847
G1 X133.34 Y112.808 E11.00161
G1 X133.287 Y112.404 E11.01516
G1 X133.257 Y112.033 E11.02754
G1 X133.246 Y111.606 E11.04175
G1 X133.257 Y111.16 E11.05659
G1 X133.287 Y110.785 E11.0691
G1 X133.339 Y110.388 E11.08242
G1 X133.418 Y109.976 E11.09637
G1 X133.508 Y109.606 E11.10904
G1 X133.623 Y109.226 E11.12224
G1 X133.771 Y108.815 E11.13677
G1 X133.916 Y108.47 E11.14922
G1 X134.088 Y108.113 E11.1624
G1 X134.292 Y107.738 E11.1766
G1 X134.474 Y107.44 E11.18821
G1 X134.711 Y107.09 E11.20227
G1 X134.939 Y106.79 E11.2148
G0 F6000 X153.365 Y104.487
G1 F1200 X157.451 Y103.949 E11.35187
G1 X159.826 Y113.105 E11.66648
G1 X161.614 Y113.171 E11.72599
G1 X163.826 Y106.62 E11.95597
G1 X166.488 Y106.27 E12.04527
G1 X168.971 Y113.338 E12.29443
G1 X170.709 Y113.302 E12.35225
G1 X173.679 Y103.612 E12.68934
G1 X178.365 Y102.962 E12.84669
G1 X172.284 Y119.742 E13.44031
G1 X168.863 Y119.742 E13.5541
G1 X165.977 Y112.225 E13.82191
G1 X164.26 Y112.291 E13.87906
G1 X162.058 Y119.672 E14.13524
G1 X158.749 Y119.672 E14.2453
G1 X153.365 Y104.487 E14.78116
G0 F6000 X155.34 Y104.428
G1 F1200 X158.077 Y107.166 E14.90992
G0 F6000 X157.974 Y106.766
G1 F1200 X155.325 Y109.415 E15.03452
G0 F6000 X154.439 Y106.922
G1 F1200 X159.268 Y111.75 E15.26164
G0 F6000 X159.372 Y112.156
G1 F1200 X157.102 Y114.426 E15.36842
G0 F6000 X156.304 Y112.181
G1 F1200 X162.296 Y118.173 E15.65026
G0 F6000 X160.201 Y119.472
G1 F1200 X158.169 Y117.44 E15.74584
G0 F6000 X157.99 Y116.932
G1 F1200 X161.554 Y113.368 E15.91348
G0 F6000 X161.86 Y113.062
G1 F1200 X166.893 Y108.029 E16.15022
G0 F6000 X167.524 Y109.824
G1 F1200 X164.441 Y106.741 E16.29523
G0 F6000 X164.841 Y106.687
G1 F1200 X163.591 Y107.937 E16.35403
G0 F6000 X163.25 Y108.944
G1 F1200 X172.597 Y118.291 E16.79368
G0 F6000 X170.453 Y119.542
G1 F1200 X168.093 Y117.181 E16.90471
G0 F6000 X168.046 Y117.058
G1 F1200 X175.882 Y109.222 E17.27329
G0 F6000 X176.208 Y108.325
G1 F1200 X173.325 Y105.443 E17.40888
G0 F6000 X173.526 Y104.791
G1 F1200 X174.636 Y103.68 E17.46111
G0 F6000 X174.918 Y103.642
G1 F1200 X177.111 Y105.834 E17.56424
G0 F6000 X177.811 Y103.899
G1 F1200 X172.026 Y109.684 E17.83635
G0 F6000 X171.732 Y110.638
G1 F1200 X174.402 Y113.308 E17.96194
G0 F6000 X173.953 Y114.545
G1 F1200 X168.988 Y119.51 E18.19548
G0 F6000 X167.104 Y114.606
G1 F1200 X168.657 Y113.053 E18.26853
G0 F6000 X170.936 Y113.236
G1 F1200 X173.499 Y115.8 E18.3891
G0 F6000 X175.305 Y110.817
G1 F1200 X172.529 Y108.04 E18.5197
G0 F6000 X167.775 Y110.541
G1 F1200 X166.163 Y112.154 E18.59555
G0 F6000 X163.856 Y112.944
G1 F1200 X162.394 Y111.482 E18.66432
G0 F6000 X160.861 Y113.343
G1 F1200 X163.076 Y115.558 E18.7685
G0 F6000 X163.21 Y115.106
G1 F1200 X158.879 Y119.438 E18.97224
G0 F6000 X156.213 Y111.921
G1 F1200 X158.673 Y109.461 E19.08796
G0 F6000 X154.436 Y106.91
G1 F1200 X157.158 Y104.187 E19.21601
G0 F6000 X149.611 Y108.341
G1 F1200 X138.959 Y118.993 E19.71705
G0 F6000 X139.53 Y119.165
G1 F1200 X133.636 Y113.272 E19.99426
G0 F6000 X133.826 Y113.943
G1 F1200 X143.851 Y103.918 E20.46581
G0 F6000 X144.976 Y104.247
G1 F1200 X149.99 Y109.26 E20.70163
G0 F6000 X150.341 Y111.005
G1 F1200 X141.862 Y119.484 E21.10045
G0 F6000 X143.157 Y119.398
G1 F1200 X133.643 Y109.885 E21.54794
G0 F6000 X133.477 Y110.898
G1 F1200 X140.569 Y103.806 E21.88153
G0 F6000 X141.081 Y103.745
G1 F1200 X150.248 Y112.913 E22.31274
G0 F6000 X149.335 Y115.394
G1 F1200 X138.372 Y104.431 E22.8284
G0 F6000 X136.266 Y105.719
G1 F1200 X147.81 Y117.263 E23.3714
G0 F6000 X146.506 Y118.234
G1 F1200 X149.316 Y115.424 E23.50357
G0 F6000 X145.776 Y118.623
G1 F1200 X134.665 Y107.512 E24.0262
G0 F6000 X129.443 Y105.684
G1 F1200 X128.108 Y104.349 E24.08899
G0 F6000 X129.443 Y104.75
G1 F1200 X125.896 Y108.296 E24.25581
G0 F6000 X125.508 Y108.538
G1 F1200 X121.157 Y104.186 E24.46049
G0 F6000 X122.855 Y104.549
G1 F1200 X119.919 Y107.485 E24.59859
G0 F6000 X119.918 Y106.342
G1 F1200 X123.836 Y110.259 E24.78286
G0 F6000 X123.686 Y110.507
G1 F1200 X119.919 Y114.274 E24.96005
G0 F6000 X119.918 Y113.13
G1 F1200 X122.943 Y116.155 E25.10233
G0 F6000 X122.943 Y114.643
G1 F1200 X119.919 Y117.668 E25.2446
G0 F6000 X119.918 Y116.524
G1 F1200 X122.887 Y119.493 E25.38425
G0 F6000 X121.488 Y119.493
G1 F1200 X122.943 Y118.038 E25.45269
G0 F6000 X122.962 Y112.779
G1 F1200 X119.918 Y109.736 E25.59584
G0 F6000 X119.919 Y110.88
G1 F1200 X124.73 Y106.069 E25.82214
G0 F6000 X125.712 Y105.347
G1 F1200 X127.97 Y107.605 E25.92835
G0 F6000 X135.004 Y116.159
G1 F1200 X146.306 Y104.857 E26.45996
G0 F6000 X148.214 Y106.343
G1 F1200 X136.726 Y117.832 E27.00034
G0 F6000 X114.334 Y107.546
G1 F1200 X111.853 Y105.065 E27.11704
G0 F6000 X112.441 Y104.781
G1 F1200 X105.576 Y111.646 E27.43995
G0 F6000 X105.575 Y112.364
G1 F1200 X108.601 Y115.389 E27.58226
G0 F6000 X108.601 Y115.409
G1 F1200 X105.576 Y118.434 E27.72455
G0 F6000 X105.575 Y119.152
G1 F1200 X105.916 Y119.492 E27.74056
G0 F6000 X107.912 Y119.492
G1 F1200 X108.601 Y118.803 E27.77297
G0 F6000 X108.601 Y118.784
G1 F1200 X105.575 Y115.758 E27.91531
G0 F6000 X105.576 Y115.04
G1 F1200 X108.762 Y111.855 E28.06514
G0 F6000 X108.71 Y112.104
G1 F1200 X105.575 Y108.97 E28.21258
G0 F6000 X105.576 Y108.252
G1 F1200 X108.512 Y105.316 E28.35068
G0 F6000 X108.512 Y105.118
G1 F1200 X107.475 Y104.081 E28.39946
G0 F6000 X106.142 Y104.292
G1 F1200 X105.576 Y104.858 E28.42608
G0 F6000 X105.575 Y105.575
G1 F1200 X109.817 Y109.817 E28.62561
G0 F6000 X111.641 Y108.247
G1 F1200 X109.336 Y105.942 E28.73403
G0 F6000 X112.86 Y107.756
G1 F1200 X115.1 Y105.516 E28.83939
G0 F6000 X115.1 Y104.918
G1 F1200 X114.416 Y104.234 E28.87157
G0 F6000 X96.89 Y110.467
G1 F1200 X87.634 Y101.211 E29.30694
G0 F6000 X86.861 Y103.208
G1 F1200 X91.415 Y98.654 E29.52115
G0 F6000 X91.81 Y98.598
G1 F1200 X92.498 Y99.286 E29.55351
G0 F6000 X92.971 Y100.493
G1 F1200 X84.715 Y108.748 E29.94182
G0 F6000 X84.792 Y108.55
G1 F1200 X91.404 Y115.162 E30.25283
G0 F6000 X91.901 Y115.139
G1 F1200 X96.8 Y110.24 E30.48326
G0 F6000 X97.758 Y112.676
G1 F1200 X95.194 Y115.24 E30.60387
G0 F6000 X94.644 Y115.008
G1 F1200 X85.739 Y106.104 E31.02271
G0 F6000 X86.687 Y103.657
G1 F1200 X99.087 Y116.058 E31.60599
G0 F6000 X98.715 Y115.113
G1 F1200 X96.29 Y117.538 E31.72005
G0 F6000 X95.849 Y116.213
G1 F1200 X99.119 Y119.484 E31.87389
G0 F6000 X97.738 Y119.484
G1 F1200 X99.673 Y117.55 E31.96488
G0 F6000 X95.843 Y107.803
G1 F1200 X88.337 Y115.309 E32.31794
G0 F6000 X88.163 Y115.316
G1 F1200 X83.843 Y110.996 E32.52114
G0 F6000 X82.896 Y113.443
G1 F1200 X85.292 Y115.839 E32.63384
G0 F6000 X84.362 Y118.303
G1 F1200 X81.948 Y115.889 E32.74739
G0 F6000 X82.569 Y114.288
G1 F1200 X93.928 Y102.929 E33.28168
G0 F6000 X94.694 Y104.876
G1 F1200 X88.847 Y99.029 E33.5567
G0 F6000 X94.885 Y105.366
G1 F1200 X80.766 Y119.486 E34.22084
G0 F6000 X81.001 Y118.336
G1 F1200 X82.15 Y119.485 E34.27489
G0 F6000 X71.542 Y111.739
G1 F1200 X71.264 Y112.017 E34.28796
G0 F6000 X71.294 Y112.023
G1 F1200 X54.169 Y94.898 E35.09347
G0 F6000 X53.596 Y95.744
G1 F1200 X57.825 Y91.515 E35.29239
G0 F6000 X58.358 Y92.3
G1 F1200 X56.912 Y90.854 E35.36041
G0 F6000 X55.541 Y92.876
G1 F1200 X65.513 Y102.848 E35.82946
G0 F6000 X66.055 Y103.649
G1 F1200 X53.501 Y116.204 E36.41998
G0 F6000 X52.588 Y113.723
G1 F1200 X64.684 Y101.627 E36.98894
G0 F6000 X63.312 Y99.604
G1 F1200 X51.675 Y111.242 E37.53634
G0 F6000 X49.487 Y110.581
G1 F1200 X45.94 Y107.034 E37.70318
G0 F6000 X46.444 Y106.29
G1 F1200 X59.197 Y93.537 E38.30304
G0 F6000 X60.569 Y95.559
G1 F1200 X44.421 Y111.708 E39.06261
G0 F6000 X43.933 Y111.815
G1 F1200 X43.196 Y111.078 E39.09728
G0 F6000 X44.568 Y109.056
G1 F1200 X46.71 Y111.198 E39.19803
G0 F6000 X48.784 Y110.738
G1 F1200 X61.941 Y97.582 E39.81687
G0 F6000 X52.797 Y96.921
G1 F1200 X66.93 Y111.053 E40.48162
G0 F6000 X65.71 Y110.783
G1 F1200 X68.799 Y107.694 E40.62692
G0 F6000 X67.427 Y105.672
G1 F1200 X54.414 Y118.685 E41.23901
G0 F6000 X54.539 Y119.027
G1 F1200 X58.35 Y122.838 E41.41827
G0 F6000 X59.107 Y120.78
G1 F1200 X56.24 Y123.647 E41.55312
G0 F6000 X56.516 Y124.398
G1 F1200 X57.437 Y125.319 E41.59645
G0 F6000 X55.327 Y121.166
G1 F1200 X61.083 Y115.41 E41.86719
G0 F6000 X61.089 Y115.395
G1 F1200 X48.682 Y102.988 E42.45078
G0 F6000 X50.054 Y100.966
G1 F1200 X62.002 Y112.914 E43.01277
G0 F6000 X63.124 Y110.641
G1 F1200 X51.426 Y98.944 E43.56299
G0 F6000 X47.311 Y105.011
G1 F1200 X60.176 Y117.876 E44.16812
G0 F6000 X59.264 Y120.358
G1 F1200 X52.563 Y113.657 E44.48331
G0 F6000 X68.487 Y111.4
G1 F1200 X70.171 Y109.716 E44.56252
G1 F1500 E40.56252
G0 F6000 X24.835 Y109.716
G0 X19.839 Y70.157
G0 X19.839 Y56.843
G0 X20.343 Y56.339
G0 X194.657 Y56.339
G0 X195.161 Y56.843
G0 X195.165 Y103.228
G0 X177.898 Y103.228
G1 F1500 E44.56252
G1 F1200 X178.014 Y103.343 E44.56796
G1 F1500 E40.56796
;MESH:Top.stl
G0 F6000 X195.165 Y103.343
G0 X200.161 Y149.843
G0 X200.161 Y163.157
G0 X199.657 Y163.661
G0 X75.462 Y163.665
G0 X75.462 Y113.964
G0 X57.146 Y87.62
G0 X56.981 Y87.546
;TYPE:WALL-INNER
G1 F1500 E44.56796
G1 F1200 X39.064 Y113.964 E45.62964
G1 X39.523 Y114.638 E45.65677
G1 X50.139 Y112.284 E46.01843
G1 X56.727 Y130.188 E46.65295
G1 X57.565 Y130.188 E46.68083
